images/logo.svg

<?xml version="1.0" standalone="no"?><!DOCTYPE svg PUBLIC "-//W3C//DTD SVG 1.1//EN" "http://www.w3.org/Graphics/SVG/1.1/DTD/svg11.dtd"><svg t="1661335467664" class="icon" viewBox="0 0 1024 1024" version="1.1" xmlns="http://www.w3.org/2000/svg" p-id="12205" xmlns:xlink="http://www.w3.org/1999/xlink" width="200" height="200"><defs><style type="text/css"></style></defs><path d="M768 85.333333H256c-46.933333 0-85.333333 38.4-85.333333 85.333334v682.666666c0 46.933333 38.4 85.333333 85.333333 85.333334h512c46.933333 0 85.333333-38.4 85.333333-85.333334V170.666667c0-46.933333-38.4-85.333333-85.333333-85.333334zM256 170.666667h213.333333v341.333333l-106.666666-64L256 512V170.666667z" p-id="12206"></path></svg>

<svg version="1.1" width="200" height="200" viewBox="0 0 1024 1024" xmlns="http://www.w3.org/2000/svg" xmlns:xlink="http://www.w3.org/1999/xlink" overflow="hidden"><path d=" M 768 85.3333 L 256 85.3333 C 209.067 85.3333 170.667 123.733 170.667 170.667 L 170.667 853.333 C 170.667 900.267 209.067 938.667 256 938.667 L 768 938.667 C 814.933 938.667 853.333 900.267 853.333 853.333 L 853.333 170.667 C 853.333 123.733 814.933 85.3333 768 85.3333 Z M 256 170.667 L 469.333 170.667 L 469.333 512 L 362.667 448 L 256 512 L 256 170.667 Z" stroke="none" stroke-width="1" stroke-dasharray="" stroke-dashoffset="1" fill="#2372FF" fill-opacity="1"/></svg>
